X: 3599
T: Bill Ellis'
R: hornpipe
M: 4/4
K: Dmajor
FG|:A^GAF dcdA|f^efA dcdA|(3Bcd BA GFED|(3Ace (3Ace a2 FG|
A^GAF dcdA|f^efA dcdA|(3Bdc (3BAG FEDF|1 :E2 D2 D2 FG:|2 E2 D2 D2 EF||
G3E (3edc (3BAG|F3D (3dcB (3AGF|ED (3EFG (3cBA (3GFE|DFAB A2 FG|
A^GAF dcdA|f^efA dcdA|(3Bdc (3BAG FEDF|1 E2 D2 D2 EF:|2 E2 D2 D4||

